src/lib/packages/icons/src/assets/filled/home-roof-search.svg

<svg width="24" height="24" viewBox="0 0 24 24" fill="none" xmlns="http://www.w3.org/2000/svg">
<path d="M13.583 12.9169C13.583 14.1119 12.6109 15.0839 11.4169 15.0839C10.2219 15.0839 9.24995 14.1119 9.24995 12.9169C9.24995 11.7219 10.2219 10.7499 11.4169 10.7499C12.6109 10.7499 13.583 11.7219 13.583 12.9169ZM21.5789 10.1409C21.4309 10.3209 21.2159 10.4139 20.9999 10.4139C20.8319 10.4139 20.6629 10.358 20.5229 10.243L19.4999 9.40095V17.9999C19.4999 20.2899 18.2899 21.4999 15.9999 21.4999H7.99995C5.70995 21.4999 4.49995 20.2899 4.49995 17.9999V9.40192L3.477 10.244C3.159 10.506 2.68497 10.4619 2.42097 10.1409C2.15697 9.81994 2.204 9.34791 2.524 9.08491L9.93598 2.98994C11.133 2.00694 12.8679 2.00694 14.0649 2.98994L21.477 9.086C21.796 9.348 21.8429 9.81994 21.5789 10.1409ZM16.03 16.4699L14.4799 14.9199C14.8579 14.3429 15.082 13.656 15.082 12.916C15.082 10.895 13.437 9.24897 11.416 9.24897C9.39396 9.24897 7.74897 10.894 7.74897 12.916C7.74897 14.938 9.39396 16.583 11.416 16.583C12.156 16.583 12.8429 16.3589 13.4189 15.9799L14.968 17.529C15.114 17.675 15.306 17.749 15.498 17.749C15.69 17.749 15.8819 17.676 16.0279 17.529C16.3229 17.237 16.323 16.7629 16.03 16.4699Z" fill="currentColor"/>
</svg>

<svg xmlns="http://www.w3.org/2000/svg" width="24" height="24" fill="none"><path fill="currentColor" d="M13.583 12.917a2.17 2.17 0 0 1-2.166 2.167 2.17 2.17 0 0 1-2.167-2.167 2.17 2.17 0 0 1 2.167-2.167 2.17 2.17 0 0 1 2.166 2.167Zm7.996-2.776a.748.748 0 0 1-1.056.102L19.5 9.401V18c0 2.29-1.21 3.5-3.5 3.5H8c-2.29 0-3.5-1.21-3.5-3.5V9.402l-1.023.842a.75.75 0 0 1-.953-1.16L9.936 2.99a3.26 3.26 0 0 1 4.129 0l7.412 6.096a.749.749 0 0 1 .102 1.055ZM16.03 16.47l-1.55-1.55a3.645 3.645 0 0 0 .602-2.004 3.672 3.672 0 0 0-3.666-3.667 3.671 3.671 0 0 0-3.667 3.667 3.671 3.671 0 0 0 3.667 3.667c.74 0 1.427-.224 2.003-.603l1.549 1.549a.748.748 0 0 0 1.06 0 .746.746 0 0 0 .002-1.06Z"/></svg>
